public/assets/images/field-c08.svg

<svg width="18" height="18" viewBox="0 0 18 18" fill="none" xmlns="http://www.w3.org/2000/svg">
<g clip-path="url(#clip0)">
<path d="M9.47993 5.79688C9.1332 5.79688 8.79425 5.89969 8.50595 6.09233C8.21765 6.28497 7.99295 6.55877 7.86026 6.87911C7.72757 7.19945 7.69285 7.55194 7.76049 7.89202C7.82814 8.23209 7.99511 8.54447 8.24028 8.78965C8.48546 9.03483 8.79784 9.20179 9.13791 9.26944C9.47799 9.33708 9.83048 9.30237 10.1508 9.16968C10.4712 9.03699 10.745 8.81228 10.9376 8.52398C11.1302 8.23568 11.2331 7.89674 11.2331 7.55C11.2331 7.08504 11.0484 6.63913 10.7196 6.31035C10.3908 5.98158 9.94489 5.79688 9.47993 5.79688Z" fill="#4F66EE"/>
<path d="M9.27025 15.9817L9.48 16.1716L9.68975 15.9817C10.9422 14.8476 12.2455 13.4004 13.2384 11.9168C14.2238 10.4441 14.935 8.88926 14.935 7.55007C14.935 6.10331 14.3603 4.71581 13.3373 3.6928C12.3143 2.66979 10.9268 2.09507 9.48 2.09507C8.03324 2.09507 6.64574 2.66979 5.62273 3.6928C4.59972 4.71581 4.025 6.10331 4.025 7.55007C4.025 8.88926 4.73615 10.4441 5.72164 11.9168C6.71447 13.4004 8.0178 14.8476 9.27025 15.9817ZM4.41181 2.48188C5.75598 1.13771 7.57906 0.382568 9.48 0.382568C11.3809 0.382568 13.204 1.13771 14.5482 2.48188C15.8924 3.82605 16.6475 5.64913 16.6475 7.55007C16.6475 9.51413 15.5598 11.7138 14.0685 13.7168C12.6467 15.6266 10.8918 17.3124 9.48 18.3804C8.06816 17.3124 6.31329 15.6266 4.89145 13.7168C3.40023 11.7138 2.3125 9.51413 2.3125 7.55007C2.3125 5.64913 3.06765 3.82605 4.41181 2.48188Z" fill="#4F66EE" stroke="white" stroke-width="0.625"/>
</g>
<defs>
<clipPath id="clip0">
<path d="M0 0H18V18H0V0Z" fill="white"/>
</clipPath>
</defs>
</svg>

<svg width="18" height="18" fill="none" xmlns="http://www.w3.org/2000/svg"><g clip-path="url(#clip0)" fill="#4F66EE"><path d="M9.48 5.797a1.753 1.753 0 100 3.506 1.753 1.753 0 000-3.506z"/><path d="M9.27 15.982l.21.19.21-.19c1.252-1.134 2.556-2.582 3.548-4.065.986-1.473 1.697-3.028 1.697-4.367a5.455 5.455 0 10-10.91 0c0 1.34.711 2.894 1.697 4.367.992 1.483 2.296 2.93 3.548 4.065zm-4.858-13.5A7.167 7.167 0 0116.648 7.55c0 1.964-1.088 4.164-2.58 6.167-1.421 1.91-3.176 3.595-4.588 4.663-1.412-1.068-3.167-2.753-4.589-4.663-1.49-2.003-2.579-4.203-2.579-6.167 0-1.9.756-3.724 2.1-5.068z" stroke="#fff" stroke-width=".625"/></g><defs><clipPath id="clip0"><path d="M0 0h18v18H0V0z" fill="#fff"/></clipPath></defs></svg>
